airplane-search.svg

<svg fill="currentColor" viewBox="0 0 24 24"><path d="m9.55 9.63 1.35 2.59c.6-1.05 1.51-1.91 2.6-2.48l-.77-3.29 3.89-3.89c.58-.59.58-1.56 0-2.122s-1.54-.586-2.12 0L10.61 4.33l-9.2-2.12L0 3.62 7.43 7.5l-3.89 3.9-2.48-.35L0 12.11l3.18 1.76 1.77 3.19L6 16l-.34-2.5zM16.5 11c2.5 0 4.5 2 4.5 4.5 0 .88-.25 1.71-.69 2.4l3.08 3.1L22 22.39l-3.12-3.07c-.69.43-1.51.68-2.38.68-2.5 0-4.5-2-4.5-4.5s2-4.5 4.5-4.5m0 2a2.5 2.5 0 0 0 0 5 2.5 2.5 0 0 0 0-5"/></svg>

<svg  viewBox="0 0 24 24" fill="currentColor"><path  d="M9.55 9.63L10.9 12.22C11.5 11.17 12.41 10.31 13.5 9.74L12.73 6.45L16.62 2.56C17.2 1.97 17.2 1 16.62 .438S15.08-.148 14.5 .438L10.61 4.33L1.41 2.21L0 3.62L7.43 7.5L3.54 11.4L1.06 11.05L0 12.11L3.18 13.87L4.95 17.06L6 16L5.66 13.5L9.55 9.63M16.5 11C19 11 21 13 21 15.5C21 16.38 20.75 17.21 20.31 17.9L23.39 21L22 22.39L18.88 19.32C18.19 19.75 17.37 20 16.5 20C14 20 12 18 12 15.5S14 11 16.5 11M16.5 13C15.12 13 14 14.12 14 15.5S15.12 18 16.5 18 19 16.88 19 15.5 17.88 13 16.5 13"/></svg>
